public/images/hashed/adfd5bae55a454b3174e3c7c92dea0bb.svg

<svg xmlns="http://www.w3.org/2000/svg" width="80" height="80"><defs><linearGradient id="a" x1="0%" x2="100%" y1="100%" y2="0%"><stop offset="0%" stop-color="#055F4E"/><stop offset="100%" stop-color="#56C0A7"/></linearGradient></defs><g fill="none" fill-rule="evenodd"><path fill="url(#a)" d="M0 0h80v80H0z"/><path fill="#FFF" d="m30.793 35.258 9-9a.999.999 0 0 1 1.414 0l9 9-1.414 1.414-8.293-8.293-8.293 8.293-1.414-1.414Zm10.414 3 9 9-1.414 1.414-8.293-8.293-8.293 8.293-1.414-1.414 9-9a.999.999 0 0 1 1.414 0Zm9 3-1.414 1.414-8.293-8.293-8.293 8.293-1.414-1.414 9-9a.999.999 0 0 1 1.414 0l9 9Zm6.564 13.969a2.507 2.507 0 0 1-3.537 0 2.486 2.486 0 0 1-.732-1.768 2.496 2.496 0 0 1 2.501-2.499c.64 0 1.28.244 1.768.731a2.507 2.507 0 0 1 0 3.536Zm-14.503 7.995c-.944.945-2.592.945-3.536 0A2.484 2.484 0 0 1 38 61.454c0-.667.26-1.295.732-1.767a2.484 2.484 0 0 1 1.768-.732c.668 0 1.296.26 1.768.732s.732 1.1.732 1.767c0 .668-.26 1.296-.732 1.768Zm-17.032-7.989a2.486 2.486 0 0 1-.732-1.768c0-.668.26-1.295.732-1.768a2.484 2.484 0 0 1 1.768-.732c.668 0 1.296.26 1.768.732.472.473.732 1.1.732 1.768 0 .668-.26 1.295-.732 1.768-.946.944-2.59.944-3.536 0Zm26.584-4.956a4.47 4.47 0 0 0-1.318 3.182c0 .473.093.929.232 1.367l-6.798 3.755c-.086-.102-.159-.213-.254-.308a4.47 4.47 0 0 0-3.182-1.318 4.47 4.47 0 0 0-3.182 1.318c-.077.077-.134.168-.205.25l-5.889-3.533a4.5 4.5 0 0 0 .28-1.525 4.47 4.47 0 0 0-1.318-3.182 4.47 4.47 0 0 0-3.182-1.318 4.47 4.47 0 0 0-3.182 1.318 4.47 4.47 0 0 0-1.318 3.182 4.47 4.47 0 0 0 1.318 3.182 4.47 4.47 0 0 0 3.182 1.318 4.462 4.462 0 0 0 3.144-1.288l6.023 3.613A4.487 4.487 0 0 0 36 61.454c0 1.202.468 2.333 1.318 3.182a4.466 4.466 0 0 0 3.182 1.318 4.466 4.466 0 0 0 3.182-1.318A4.469 4.469 0 0 0 45 61.454c0-.375-.061-.738-.149-1.093l6.896-3.809c.026.028.046.061.073.089a4.486 4.486 0 0 0 3.182 1.315 4.489 4.489 0 0 0 3.183-1.315 4.506 4.506 0 0 0 0-6.364 4.506 4.506 0 0 0-6.365 0Zm8.68-3.312a2.503 2.503 0 0 1-2.5-2.5c0-1.378 1.121-2.5 2.5-2.5s2.5 1.122 2.5 2.5-1.121 2.5-2.5 2.5Zm-2.5-19.5c0-1.378 1.121-2.5 2.5-2.5s2.5 1.122 2.5 2.5-1.121 2.5-2.5 2.5a2.503 2.503 0 0 1-2.5-2.5ZM46 21a2.502 2.502 0 0 1-2.5-2.5c0-1.378 1.121-2.5 2.5-2.5s2.5 1.122 2.5 2.5c0 1.379-1.121 2.5-2.5 2.5Zm15.5 19.086v-8.242c2-.457 3.5-2.242 3.5-4.379 0-2.481-2.019-4.5-4.5-4.5-1.05 0-2.004.376-2.77.98l-7.453-4.116c.131-.423.223-.863.223-1.329 0-2.481-2.019-4.5-4.5-4.5a4.505 4.505 0 0 0-4.5 4.5c0 2.482 2.019 4.5 4.5 4.5a4.471 4.471 0 0 0 3.278-1.438l7.178 3.965A4.456 4.456 0 0 0 56 27.465c0 2.137 1.5 3.922 3.5 4.379v8.242c-2 .457-3.5 2.242-3.5 4.379 0 2.481 2.019 4.5 4.5 4.5s4.5-2.019 4.5-4.5c0-2.137-1.5-3.922-3.5-4.379Zm-41 6.879a2.503 2.503 0 0 1-2.5-2.5c0-1.378 1.121-2.5 2.5-2.5s2.5 1.122 2.5 2.5-1.121 2.5-2.5 2.5Zm-2.5-19.5c0-1.378 1.121-2.5 2.5-2.5s2.5 1.122 2.5 2.5-1.121 2.5-2.5 2.5a2.503 2.503 0 0 1-2.5-2.5ZM35 16c1.379 0 2.5 1.122 2.5 2.5 0 1.379-1.121 2.5-2.5 2.5a2.502 2.502 0 0 1-2.5-2.5c0-1.378 1.121-2.5 2.5-2.5ZM25 44.465c0-2.137-1.5-3.922-3.5-4.379v-8.242c2-.457 3.5-2.242 3.5-4.379 0-.697-.173-1.349-.456-1.938l7.178-3.965A4.471 4.471 0 0 0 35 23c2.481 0 4.5-2.018 4.5-4.5 0-2.481-2.019-4.5-4.5-4.5a4.505 4.505 0 0 0-4.5 4.5c0 .466.092.906.223 1.329l-7.453 4.116a4.456 4.456 0 0 0-2.77-.98 4.505 4.505 0 0 0-4.5 4.5c0 2.137 1.5 3.922 3.5 4.379v8.242c-2 .457-3.5 2.242-3.5 4.379 0 2.481 2.019 4.5 4.5 4.5s4.5-2.019 4.5-4.5Z"/></g></svg>

<?xml version="1.0" encoding="UTF-8"?>
<svg width="80px" height="80px" viewBox="0 0 80 80" version="1.1" xmlns="http://www.w3.org/2000/svg" xmlns:xlink="http://www.w3.org/1999/xlink">
    <!-- Generator: Sketch 64 (93537) - https://sketch.com -->
    <title>Icon-Architecture/64/Arch_AWS-Migration-Hub_64</title>
    <desc>Created with Sketch.</desc>
    <defs>
        <linearGradient x1="0%" y1="100%" x2="100%" y2="0%" id="linearGradient-1">
            <stop stop-color="#055F4E" offset="0%"></stop>
            <stop stop-color="#56C0A7" offset="100%"></stop>
        </linearGradient>
    </defs>
    <g id="Icon-Architecture/64/Arch_AWS-Migration-Hub_64" stroke="none" stroke-width="1" fill="none" fill-rule="evenodd">
        <g id="Icon-Architecture-BG/64/Migration-Transfer" fill="url(#linearGradient-1)">
            <rect id="Rectangle" x="0" y="0" width="80" height="80"></rect>
        </g>
        <path d="M30.793,35.258 L39.793,26.258 C40.184,25.867 40.816,25.867 41.207,26.258 L50.207,35.258 L48.793,36.672 L40.5,28.379 L32.207,36.672 L30.793,35.258 Z M41.207,38.258 L50.207,47.258 L48.793,48.672 L40.5,40.379 L32.207,48.672 L30.793,47.258 L39.793,38.258 C40.184,37.867 40.816,37.867 41.207,38.258 L41.207,38.258 Z M50.207,41.258 L48.793,42.672 L40.5,34.379 L32.207,42.672 L30.793,41.258 L39.793,32.258 C40.184,31.867 40.816,31.867 41.207,32.258 L50.207,41.258 Z M56.771,55.227 C55.796,56.2 54.209,56.201 53.234,55.227 C52.762,54.754 52.502,54.127 52.502,53.459 C52.502,52.791 52.762,52.163 53.234,51.691 C53.722,51.204 54.362,50.96 55.003,50.96 C55.643,50.96 56.283,51.204 56.771,51.691 C57.744,52.666 57.744,54.252 56.771,55.227 L56.771,55.227 Z M42.268,63.222 C41.324,64.167 39.676,64.167 38.732,63.222 C38.26,62.75 38,62.122 38,61.454 C38,60.787 38.26,60.159 38.732,59.687 C39.204,59.215 39.832,58.955 40.5,58.955 C41.168,58.955 41.796,59.215 42.268,59.687 C42.74,60.159 43,60.787 43,61.454 C43,62.122 42.74,62.75 42.268,63.222 L42.268,63.222 Z M25.236,55.233 C24.764,54.76 24.504,54.133 24.504,53.465 C24.504,52.797 24.764,52.17 25.236,51.697 C25.708,51.225 26.336,50.965 27.004,50.965 C27.672,50.965 28.3,51.225 28.772,51.697 C29.244,52.17 29.504,52.797 29.504,53.465 C29.504,54.133 29.244,54.76 28.772,55.233 C27.826,56.177 26.182,56.177 25.236,55.233 L25.236,55.233 Z M51.82,50.277 C50.97,51.127 50.502,52.257 50.502,53.459 C50.502,53.932 50.595,54.388 50.734,54.826 L43.936,58.581 C43.85,58.479 43.777,58.368 43.682,58.273 C42.832,57.423 41.702,56.955 40.5,56.955 C39.298,56.955 38.168,57.423 37.318,58.273 C37.241,58.35 37.184,58.441 37.113,58.523 L31.224,54.99 C31.398,54.506 31.504,53.995 31.504,53.465 C31.504,52.263 31.036,51.133 30.186,50.283 C29.336,49.433 28.206,48.965 27.004,48.965 C25.802,48.965 24.672,49.433 23.822,50.283 C22.972,51.133 22.504,52.263 22.504,53.465 C22.504,54.667 22.972,55.797 23.822,56.647 C24.672,57.497 25.802,57.965 27.004,57.965 C28.189,57.965 29.303,57.506 30.148,56.677 L36.171,60.29 C36.07,60.667 36,61.054 36,61.454 C36,62.656 36.468,63.787 37.318,64.636 C38.168,65.487 39.298,65.954 40.5,65.954 C41.702,65.954 42.832,65.487 43.682,64.636 C44.532,63.787 45,62.656 45,61.454 C45,61.079 44.939,60.716 44.851,60.361 L51.747,56.552 C51.773,56.58 51.793,56.613 51.82,56.641 C52.697,57.518 53.85,57.956 55.002,57.956 C56.154,57.956 57.308,57.518 58.185,56.641 C59.939,54.886 59.939,52.031 58.185,50.277 C56.432,48.524 53.575,48.521 51.82,50.277 L51.82,50.277 Z M60.5,46.965 C59.121,46.965 58,45.843 58,44.465 C58,43.087 59.121,41.965 60.5,41.965 C61.879,41.965 63,43.087 63,44.465 C63,45.843 61.879,46.965 60.5,46.965 L60.5,46.965 Z M58,27.465 C58,26.087 59.121,24.965 60.5,24.965 C61.879,24.965 63,26.087 63,27.465 C63,28.843 61.879,29.965 60.5,29.965 C59.121,29.965 58,28.843 58,27.465 L58,27.465 Z M46,21 C44.621,21 43.5,19.879 43.5,18.5 C43.5,17.122 44.621,16 46,16 C47.379,16 48.5,17.122 48.5,18.5 C48.5,19.879 47.379,21 46,21 L46,21 Z M61.5,40.086 L61.5,31.844 C63.5,31.387 65,29.602 65,27.465 C65,24.984 62.981,22.965 60.5,22.965 C59.45,22.965 58.496,23.341 57.73,23.945 L50.277,19.829 C50.408,19.406 50.5,18.966 50.5,18.5 C50.5,16.019 48.481,14 46,14 C43.519,14 41.5,16.019 41.5,18.5 C41.5,20.982 43.519,23 46,23 C47.296,23 48.457,22.442 49.278,21.562 L56.456,25.527 C56.173,26.116 56,26.768 56,27.465 C56,29.602 57.5,31.387 59.5,31.844 L59.5,40.086 C57.5,40.543 56,42.328 56,44.465 C56,46.946 58.019,48.965 60.5,48.965 C62.981,48.965 65,46.946 65,44.465 C65,42.328 63.5,40.543 61.5,40.086 L61.5,40.086 Z M20.5,46.965 C19.121,46.965 18,45.843 18,44.465 C18,43.087 19.121,41.965 20.5,41.965 C21.879,41.965 23,43.087 23,44.465 C23,45.843 21.879,46.965 20.5,46.965 L20.5,46.965 Z M18,27.465 C18,26.087 19.121,24.965 20.5,24.965 C21.879,24.965 23,26.087 23,27.465 C23,28.843 21.879,29.965 20.5,29.965 C19.121,29.965 18,28.843 18,27.465 L18,27.465 Z M35,16 C36.379,16 37.5,17.122 37.5,18.5 C37.5,19.879 36.379,21 35,21 C33.621,21 32.5,19.879 32.5,18.5 C32.5,17.122 33.621,16 35,16 L35,16 Z M25,44.465 C25,42.328 23.5,40.543 21.5,40.086 L21.5,31.844 C23.5,31.387 25,29.602 25,27.465 C25,26.768 24.827,26.116 24.544,25.527 L31.722,21.562 C32.543,22.442 33.704,23 35,23 C37.481,23 39.5,20.982 39.5,18.5 C39.5,16.019 37.481,14 35,14 C32.519,14 30.5,16.019 30.5,18.5 C30.5,18.966 30.592,19.406 30.723,19.829 L23.27,23.945 C22.504,23.341 21.55,22.965 20.5,22.965 C18.019,22.965 16,24.984 16,27.465 C16,29.602 17.5,31.387 19.5,31.844 L19.5,40.086 C17.5,40.543 16,42.328 16,44.465 C16,46.946 18.019,48.965 20.5,48.965 C22.981,48.965 25,46.946 25,44.465 L25,44.465 Z" id="AWS-Migration-Hub_Icon_64_Squid" fill="#FFFFFF"></path>
    </g>
</svg>
